!!!OTL: DER HIMMEL IST SO TRUEBE
!!!ARE: Europa, Mitteleuropa, Deutschland, Hessen, Wetterau, Bettenhausen
!!!SCT: E0709B
!!!YEM: Copyright 1995, estate of Helmut Schaffrath.
**kern
*ICvox
*Ivox
*M6/8
*k[f#]
*G:
{8d
=1
4g
8f#
4g
8dd
=2
4b
8a
4g}
{16a
16b
=3
4cc
8a
4dd
8b
=4
4.a
4r}
{16a
16b
=5
4cc
8ee
8ee
8dd
8cc
=6
4b
8ee
4dd}
{8b
=7
8dd
8cc
8b
8cc
8b
8a
=8
4.g
4r}
==
!!!AGN: Liebes - Lied, Leid, Klage
!!!ONB: ESAC (Essen Associative Code) Database: ERK2
!!!AMT: compound duple
!!!AIN: vox
!!!EED: Helmut Schaffrath
!!!EEV: 1.0
*-
